layouts/icon-pack/spell_paralyze.svg

<?xml version="1.0" encoding="UTF-8"?>
<svg width="1200pt" height="1200pt" version="1.1" viewBox="0 0 1200 1200" xmlns="http://www.w3.org/2000/svg">
 <g fill="#fff">
  <path d="m527.88 487.73c12.516 59.859 65.414 103.34 126.82 101.18 58.594-2.0625 106.45-44.977 117.96-101.11h0.63281c13.773 0.19141 26.605-6.9766 33.66-18.809 7.0508-11.836 7.2578-26.531 0.53906-38.555-6.7227-12.027-19.348-19.555-33.121-19.746-0.25781-16.594-0.46875-33.609-0.60938-50.742-0.49219-70.594-56.766-127.66-126.02-127.95-69.938-0.28125-126.56 57.398-126.68 128.7 0 16.172 0.23438 33.234 0.84375 50.719-12.371 2.5586-22.703 11.012-27.664 22.633-4.9609 11.617-3.918 24.926 2.7891 35.633 6.7109 10.703 18.234 17.445 30.852 18.047zm171.56-137.04c8.0664 0.03125 15.793 3.2617 21.484 8.9805 5.6875 5.7188 8.8789 13.461 8.8672 21.527s-3.2188 15.801-8.9258 21.504c-5.7031 5.707-13.438 8.9141-21.504 8.9258-8.0664 0.011719-15.809-3.1797-21.527-8.8672-5.7188-5.6914-8.9492-13.418-8.9805-21.484-0.03125-8.1211 3.1797-15.918 8.9258-21.66 5.7422-5.7461 13.539-8.957 21.66-8.9258zm-35.367 98.555c10.043-0.34766 19.809 3.3047 27.156 10.156 7.3516 6.8516 11.676 16.344 12.031 26.383v0.72656c0.35547 10.043-3.2969 19.816-10.148 27.164-6.8555 7.3516-16.348 11.676-26.391 12.023l-27.891 0.98438c-10.039 0.35938-19.812-3.2852-27.164-10.133-7.3477-6.8516-11.676-16.344-12.023-26.383v-0.75c-0.35938-10.039 3.2852-19.812 10.133-27.164 6.8516-7.3477 16.344-11.676 26.383-12.023zm-68.25-98.555c8.0664 0.03125 15.793 3.2617 21.484 8.9805 5.6875 5.7188 8.8789 13.461 8.8672 21.527-0.011719 8.0664-3.2188 15.801-8.9258 21.504-5.7031 5.707-13.438 8.9141-21.504 8.9258-8.0664 0.011719-15.809-3.1797-21.527-8.8672-5.7188-5.6914-8.9492-13.418-8.9805-21.484-0.03125-8.1211 3.1797-15.918 8.9258-21.66 5.7422-5.7461 13.539-8.957 21.66-8.9258z"/>
  <path d="m556.03 1157.6h264.28c6.5039-0.007812 12.66-2.9375 16.773-7.9805 4.1094-5.043 5.7383-11.66 4.4375-18.035-3.043-15.113-8.0156-29.77-14.789-43.617-7.7969-16.098-12.367-33.566-13.453-51.422l-23.18-352.34c-0.83594-12.648-6.332-24.539-15.422-33.371-9.0898-8.8359-21.129-13.988-33.797-14.465l-178.88-6.3516c-13.957-0.5-27.512 4.7227-37.527 14.461-10.012 9.7344-15.617 23.137-15.512 37.102 0.58594 100.2 4.4531 318.75 25.781 457.66 0.78516 5.0898 3.3594 9.7344 7.2617 13.098 3.8984 3.3633 8.8711 5.2266 14.02 5.2539z"/>
  <path d="m1076.3 771.09c-6.4258-32.766-23.77-62.387-49.199-84.027-25.43-21.645-57.441-34.023-90.816-35.129l-69.656-2.3438c-7.1172-0.22266-13.984 2.6445-18.824 7.8672-4.8398 5.2227-7.1797 12.289-6.418 19.367l5.2734 47.906c0.61328 5.5781 3.1133 10.777 7.0859 14.742 3.9727 3.9648 9.1797 6.4531 14.758 7.0547l52.383 5.5781c12.387 1.3242 24.094 6.332 33.602 14.379 9.5117 8.0469 16.387 18.762 19.742 30.762l33.562 120.59c4.4727 15.996 16.938 28.52 32.91 33.07s33.164 0.47656 45.398-10.758c12.234-11.234 17.754-28.016 14.574-44.32z"/>
  <path d="m254.04 391.62 0.375 157.48c-2.3789 33.324 6.6172 66.473 25.516 94.023 18.895 27.551 46.578 47.879 78.523 57.664l66.633 20.391c6.8242 2.0898 14.219 1.1172 20.266-2.6719 6.0508-3.7852 10.156-10.012 11.258-17.062l7.4531-47.719c0.86328-5.543-0.19141-11.219-2.9922-16.082-2.8008-4.8633-7.1758-8.625-12.406-10.66l-49.219-19.078c-11.605-4.5156-21.59-12.406-28.664-22.656s-10.91-22.383-11.016-34.836l-10.383-155.79c-0.11328-16.629-8.8711-32.004-23.113-40.586-14.246-8.582-31.926-9.1367-46.684-1.4688-14.754 7.6719-24.457 22.465-25.617 39.055z"/>
  <path d="m965.06 209.6-91.148-68.625c-3.6289-2.7305-8.168-3.9609-12.68-3.4375-4.5117 0.52344-8.6484 2.7617-11.555 6.25l-23.93 28.688c-3.0508 3.6562-4.5 8.3867-4.0195 13.125 0.48047 4.7344 2.8516 9.0781 6.5742 12.047l64.852 51.562c6.0391 4.8242 9.1875 12.402 8.3438 20.086l-16.055 145.57c-0.60547 5.2148 0.21094 10.496 2.3594 15.285 2.1484 4.793 5.5547 8.9102 9.8516 11.926l130.92 91.641c3.7891 2.6484 8.4609 3.707 13.02 2.9531s8.6445-3.2578 11.379-6.9844l27.141-36.609c2.957-3.9844 4.1016-9.0273 3.1641-13.895-0.94141-4.8711-3.8828-9.125-8.1094-11.723l-92.906-57.023c-4.418-2.7109-8.0234-6.5625-10.441-11.148-2.418-4.5859-3.5547-9.7383-3.293-14.914l7.5234-151.31c0.44531-9.1562-3.6719-17.941-10.992-23.461z"/>
  <path d="m1149.8 354.21-45.352-30.656c-2.4375-1.6445-4.3906-3.9062-5.668-6.5547-1.2773-2.6484-1.8281-5.5859-1.5977-8.5156l11.32-142.97c0.64453-7.7969-2.6875-15.395-8.8594-20.203l-127.73-99.398c-3.4062-2.6523-7.707-3.8789-12-3.4141-4.2891 0.46484-8.2344 2.5781-10.992 5.8984l-23.203 28.125c-2.9336 3.5352-4.2734 8.1289-3.6953 12.684 0.57812 4.5586 3.0195 8.6719 6.7422 11.363l103.48 75c5.6953 4.1641 8.9336 10.902 8.625 17.953l-7.6875 157.78c-0.46875 9.875 4.2852 19.273 12.516 24.75l59.789 39.609c3.5078 2.332 7.7695 3.2422 11.926 2.5508s7.8945-2.9336 10.457-6.2773l25.781-33.703c2.832-3.6406 4.0273-8.293 3.2969-12.848-0.72656-4.5547-3.3125-8.6016-7.1406-11.176z"/>
  <path d="m80.578 980.79 134.11 52.805c7.0547 2.7734 12.199 8.9648 13.641 16.406l15.211 80.203c0.86719 4.6016 3.5586 8.6602 7.457 11.254 3.8984 2.5938 8.6797 3.5039 13.262 2.5273l35.977-7.6641c4.3672-0.92969 8.2109-3.5 10.734-7.1797 2.5273-3.6836 3.5391-8.1914 2.8359-12.602l-17.859-110.86c-1.4414-8.9141-7.2109-16.535-15.398-20.344l-135.23-62.812c-4.6328-2.1484-8.5977-5.5039-11.484-9.7148-2.8867-4.2109-4.5859-9.1211-4.9219-14.215l-7.0312-107.11c-0.33203-4.8633-2.6836-9.3672-6.4883-12.418-3.8008-3.0508-8.707-4.3672-13.527-3.6367l-44.344 6.8203c-4.457 0.70312-8.4648 3.1094-11.176 6.7148-2.7109 3.6055-3.9141 8.1211-3.3555 12.598l19.641 156.05c0.63281 5.1211 2.6367 9.9766 5.793 14.055 3.1602 4.0781 7.3594 7.2305 12.16 9.125z"/>
  <path d="m235.9 764.18-41.203 7.0312c-4.082 0.70703-7.7422 2.9336-10.25 6.2266-2.5078 3.2969-3.6758 7.418-3.2734 11.539l7.0312 70.312c0.96484 9.6836 6.9609 18.141 15.773 22.266l140.88 65.789c6.3164 2.9219 10.727 8.8398 11.719 15.727l17.695 124.43c0.65625 4.4688 3.125 8.4688 6.8203 11.059 3.6992 2.5898 8.3047 3.543 12.727 2.6289l35.086-7.3359c4.125-0.88672 7.75-3.332 10.121-6.8242 2.3711-3.4922 3.3047-7.7617 2.6055-11.926l-27.938-156.87c-1.3438-7.5664-6.3984-13.949-13.453-16.992l-129.63-55.781c-2.6562-1.1484-4.9609-2.9766-6.6797-5.3008-1.7227-2.3281-2.7969-5.0664-3.1172-7.9414l-5.8594-53.578c-0.47266-4.5039-2.7891-8.6133-6.3984-11.355-3.6094-2.7383-8.1875-3.8633-12.656-3.1055z"/>
 </g>
</svg>

<?xml version="1.0" encoding="UTF-8" standalone="no"?>
<!DOCTYPE svg PUBLIC "-//W3C//DTD SVG 1.1//EN" "http://www.w3.org/Graphics/SVG/1.1/DTD/svg11.dtd">
<svg width="100%" height="100%" viewBox="0 0 512 512" version="1.1" xmlns="http://www.w3.org/2000/svg" xmlns:xlink="http://www.w3.org/1999/xlink" xml:space="preserve" xmlns:serif="http://www.serif.com/" style="fill-rule:evenodd;clip-rule:evenodd;stroke-linejoin:round;stroke-miterlimit:2;">
    <g transform="matrix(1,0,0,1,-42.8571,-42.4021)">
        <g transform="matrix(0.459111,0,0,0.459111,23.1809,22.9348)">
            <path d="M527.88,487.73C540.396,547.589 593.294,591.07 654.7,588.91C713.294,586.848 761.15,543.933 772.66,487.8L773.293,487.8C787.066,487.991 799.898,480.823 806.953,468.991C814.004,457.155 814.211,442.46 807.492,430.436C800.769,418.409 788.144,410.881 774.371,410.69C774.113,394.096 773.902,377.081 773.761,359.948C773.269,289.354 716.995,232.288 647.741,231.998C577.803,231.717 521.181,289.396 521.061,360.698C521.061,376.87 521.296,393.932 521.905,411.417C509.534,413.976 499.202,422.429 494.241,434.05C489.28,445.667 490.323,458.976 497.03,469.683C503.741,480.386 515.264,487.128 527.882,487.73L527.88,487.73ZM699.44,350.69C707.506,350.721 715.233,353.952 720.924,359.671C726.612,365.389 729.803,373.132 729.791,381.198C729.78,389.264 726.572,396.999 720.865,402.702C715.162,408.409 707.427,411.616 699.361,411.627C691.295,411.639 683.552,408.448 677.834,402.76C672.116,397.069 668.885,389.342 668.854,381.276C668.823,373.155 672.034,365.358 677.78,359.616C683.522,353.87 691.319,350.659 699.44,350.69L699.44,350.69ZM664.073,449.245C674.116,448.897 683.882,452.55 691.229,459.401C698.581,466.253 702.905,475.745 703.26,485.784L703.26,486.511C703.615,496.554 699.963,506.327 693.112,513.675C686.257,521.026 676.764,525.351 666.721,525.698L638.83,526.682C628.791,527.041 619.018,523.397 611.666,516.549C604.318,509.697 599.99,500.205 599.643,490.166L599.643,489.416C599.284,479.377 602.928,469.604 609.776,462.252C616.628,454.904 626.12,450.576 636.159,450.229L664.073,449.245ZM595.823,350.69C603.889,350.721 611.616,353.952 617.307,359.671C622.995,365.389 626.186,373.132 626.174,381.198C626.162,389.264 622.955,396.999 617.248,402.702C611.545,408.409 603.81,411.616 595.744,411.627C587.678,411.639 579.935,408.448 574.217,402.76C568.499,397.069 565.268,389.342 565.237,381.276C565.206,373.155 568.417,365.358 574.163,359.616C579.905,353.87 587.702,350.659 595.823,350.69L595.823,350.69Z" style="fill:white;fill-rule:nonzero;"/>
            <path d="M556.03,1157.6L820.31,1157.6C826.814,1157.59 832.97,1154.66 837.083,1149.62C841.192,1144.58 842.821,1137.96 841.521,1131.59C838.478,1116.47 833.505,1101.82 826.732,1087.97C818.935,1071.87 814.365,1054.4 813.279,1036.55L790.099,684.206C789.263,671.558 783.767,659.667 774.677,650.835C765.587,641.999 753.548,636.847 740.88,636.37L562,630.018C548.043,629.518 534.488,634.741 524.473,644.479C514.46,654.213 508.855,667.616 508.96,681.581C509.546,781.781 513.414,1000.33 534.742,1139.24C535.527,1144.33 538.101,1148.98 542.003,1152.34C545.902,1155.7 550.874,1157.57 556.023,1157.59L556.03,1157.6Z" style="fill:white;fill-rule:nonzero;"/>
            <path d="M1076.3,771.09C1069.87,738.324 1052.53,708.703 1027.1,687.063C1001.67,665.418 969.66,653.04 936.285,651.934L866.629,649.59C859.512,649.368 852.645,652.235 847.805,657.457C842.965,662.68 840.625,669.746 841.387,676.824L846.66,724.73C847.274,730.308 849.774,735.507 853.746,739.472C857.719,743.437 862.926,745.925 868.504,746.527L920.887,752.105C933.274,753.429 944.981,758.437 954.489,766.484C964.001,774.531 970.876,785.246 974.231,797.246L1007.79,917.836C1012.27,933.832 1024.73,946.356 1040.7,950.906C1056.67,955.456 1073.87,951.383 1086.1,940.148C1098.34,928.914 1103.86,912.132 1100.67,895.828L1076.3,771.09Z" style="fill:white;fill-rule:nonzero;"/>
            <path d="M254.04,391.62L254.415,549.1C252.036,582.424 261.032,615.573 279.931,643.123C298.826,670.674 326.509,691.002 358.454,700.787L425.087,721.178C431.911,723.268 439.306,722.295 445.353,718.506C451.404,714.721 455.509,708.494 456.611,701.444L464.064,653.725C464.927,648.182 463.873,642.506 461.072,637.643C458.271,632.78 453.896,629.018 448.666,626.983L399.447,607.905C387.842,603.39 377.857,595.499 370.783,585.249C363.709,574.999 359.873,562.866 359.767,550.413L349.384,394.623C349.271,377.994 340.513,362.619 326.271,354.037C312.025,345.455 294.345,344.9 279.587,352.568C264.833,360.24 255.13,375.033 253.97,391.623L254.04,391.62Z" style="fill:white;fill-rule:nonzero;"/>
            <path d="M965.06,209.6L873.912,140.975C870.283,138.244 865.744,137.014 861.232,137.538C856.72,138.061 852.584,140.299 849.677,143.788L825.747,172.475C822.696,176.132 821.247,180.862 821.728,185.6C822.208,190.335 824.579,194.679 828.302,197.647L893.154,249.21C899.193,254.034 902.341,261.611 901.498,269.296L885.443,414.866C884.837,420.08 885.653,425.361 887.802,430.151C889.95,434.944 893.357,439.061 897.654,442.077L1028.57,533.718C1032.36,536.366 1037.03,537.425 1041.59,536.671C1046.15,535.917 1050.24,533.413 1052.97,529.686L1080.11,493.077C1083.07,489.093 1084.21,484.05 1083.28,479.182C1082.34,474.311 1079.39,470.057 1075.17,467.459L982.262,410.436C977.844,407.725 974.239,403.874 971.821,399.288C969.403,394.702 968.267,389.55 968.528,384.374L976.052,233.064C976.497,223.908 972.38,215.123 965.06,209.603L965.06,209.6Z" style="fill:white;fill-rule:nonzero;"/>
            <path d="M1149.8,354.21L1104.45,323.554C1102.01,321.91 1100.06,319.648 1098.78,316.999C1097.5,314.351 1096.95,311.413 1097.18,308.484L1108.5,165.514C1109.15,157.717 1105.82,150.119 1099.64,145.311L971.913,45.913C968.507,43.26 964.206,42.034 959.913,42.499C955.624,42.963 951.678,45.077 948.921,48.397L925.718,76.522C922.784,80.057 921.444,84.651 922.023,89.206C922.601,93.765 925.042,97.878 928.765,100.569L1032.25,175.569C1037.94,179.733 1041.18,186.471 1040.87,193.522L1033.18,351.302C1032.71,361.177 1037.47,370.575 1045.7,376.052L1105.49,415.661C1109,417.993 1113.26,418.903 1117.41,418.212C1121.57,417.52 1125.31,415.278 1127.87,411.934L1153.65,378.231C1156.48,374.591 1157.68,369.938 1156.95,365.383C1156.22,360.829 1153.64,356.782 1149.81,354.207L1149.8,354.21Z" style="fill:white;fill-rule:nonzero;"/>
            <path d="M80.578,980.79L214.688,1033.6C221.743,1036.37 226.887,1042.56 228.329,1050L243.54,1130.2C244.407,1134.81 247.099,1138.86 250.997,1141.46C254.895,1144.05 259.677,1144.96 264.259,1143.99L300.236,1136.32C304.603,1135.39 308.447,1132.82 310.97,1129.14C313.497,1125.46 314.509,1120.95 313.806,1116.54L295.947,1005.68C294.506,996.765 288.736,989.144 280.549,985.335L145.319,922.523C140.686,920.375 136.721,917.02 133.835,912.809C130.948,908.598 129.249,903.688 128.913,898.594L121.882,791.484C121.55,786.62 119.198,782.116 115.393,779.066C111.593,776.015 106.686,774.698 101.866,775.429L57.522,782.249C53.065,782.952 49.058,785.359 46.346,788.964C43.636,792.57 42.432,797.085 42.991,801.562L62.632,957.612C63.265,962.733 65.269,967.589 68.425,971.667C71.585,975.745 75.784,978.898 80.585,980.792L80.578,980.79Z" style="fill:white;fill-rule:nonzero;"/>
            <path d="M235.9,764.18L194.697,771.211C190.615,771.918 186.955,774.145 184.447,777.438C181.939,780.735 180.771,784.856 181.174,788.977L188.205,859.289C189.17,868.972 195.166,877.43 203.978,881.555L344.858,947.344C351.174,950.266 355.585,956.184 356.577,963.071L374.272,1087.5C374.928,1091.97 377.397,1095.97 381.092,1098.56C384.791,1101.15 389.397,1102.1 393.819,1101.19L428.905,1093.85C433.03,1092.97 436.655,1090.52 439.026,1087.03C441.397,1083.54 442.331,1079.27 441.632,1075.1L413.694,918.233C412.35,910.666 407.295,904.284 400.241,901.241L270.611,845.46C267.954,844.311 265.65,842.483 263.931,840.159C262.208,837.831 261.134,835.092 260.814,832.217L254.954,778.639C254.482,774.135 252.165,770.026 248.556,767.284C244.946,764.546 240.368,763.421 235.9,764.179L235.9,764.18Z" style="fill:white;fill-rule:nonzero;"/>
        </g>
    </g>
</svg>
